X:1
T:Ez a vonat most van idulóban
T:Ez a vonat most van idulóban
C:Hungarian song
Z:Public Domain
L:1/8
M:4/4
K:C
V:1 treble 
%%MIDI program 0
V:1
"C" G C3 E2 G2 |"F" A2 E2"G" F2 D2 |"C" C4 C2 z2 | G G3 e e3 |"G" d2 c2 B A3 |"C" G4 G2 z2 | %6
w: Ez a vo- nat|most van in- du-|ló- ban,|Az e- le- je|fel van vi- rá-|goz- va,|
 G G3 e e3 |"G" d2 c2 B2 z2 |"F" A^GAB dcBA |"G" G2 F2 E2 z2 |"C" G2 C2 E G3 |"F" A2 E2"G" F D3 | %12
w: Az e- le- je|sár- gá- ra,|Le- sze- re- lő ö- reg ba- kák|szá- má- ra,|Men- nek ha- za|vég- leg sza- bad-|
"C" C4 C2 z2 |] %13
w: ság- ra.-|

